packages/design-system/src/icons/assets/btn_close.svg

<svg width="18" height="19" viewBox="0 0 18 19" fill="none" xmlns="http://www.w3.org/2000/svg">
<g clip-path="url(#clip0_896_543)">
<circle cx="9" cy="9.30005" r="9" fill="#93959D"/>
<path d="M9.00059 10.3495L6.82559 12.5245C6.68809 12.662 6.51309 12.7307 6.30059 12.7307C6.08809 12.7307 5.91309 12.662 5.77559 12.5245C5.63809 12.387 5.56934 12.212 5.56934 11.9995C5.56934 11.787 5.63809 11.612 5.77559 11.4745L7.95059 9.29946L5.77559 7.14321C5.63809 7.00571 5.56934 6.83071 5.56934 6.61821C5.56934 6.40571 5.63809 6.23071 5.77559 6.09321C5.91309 5.95571 6.08809 5.88696 6.30059 5.88696C6.51309 5.88696 6.68809 5.95571 6.82559 6.09321L9.00059 8.26821L11.1568 6.09321C11.2943 5.95571 11.4693 5.88696 11.6818 5.88696C11.8943 5.88696 12.0693 5.95571 12.2068 6.09321C12.3568 6.24321 12.4318 6.42134 12.4318 6.62759C12.4318 6.83384 12.3568 7.00571 12.2068 7.14321L10.0318 9.29946L12.2068 11.4745C12.3443 11.612 12.4131 11.787 12.4131 11.9995C12.4131 12.212 12.3443 12.387 12.2068 12.5245C12.0568 12.6745 11.8787 12.7495 11.6725 12.7495C11.4662 12.7495 11.2943 12.6745 11.1568 12.5245L9.00059 10.3495Z" fill="white"/>
</g>
<defs>
<clipPath id="clip0_896_543">
<rect width="18" height="18" fill="white" transform="translate(0 0.300049)"/>
</clipPath>
</defs>
</svg>

<svg xmlns="http://www.w3.org/2000/svg" width="18" height="19" fill="none"><g clip-path="url(#a)"><circle cx="9" cy="9.3" r="9" fill="#93959D"/><path fill="#fff" d="m9 10.35-2.174 2.175a.7.7 0 0 1-.525.206.7.7 0 0 1-.525-.207.7.7 0 0 1-.207-.524q0-.32.207-.525L7.95 9.299 5.776 7.143a.7.7 0 0 1-.207-.525q0-.318.207-.525a.7.7 0 0 1 .525-.206q.318 0 .525.206L9 8.268l2.156-2.175a.7.7 0 0 1 .525-.206q.318 0 .525.206a.73.73 0 0 1 .225.535.67.67 0 0 1-.225.515L10.032 9.3l2.175 2.176a.7.7 0 0 1 .206.524.7.7 0 0 1-.206.525.73.73 0 0 1-.535.226.67.67 0 0 1-.515-.226z"/></g><defs><clipPath id="a"><path fill="#fff" d="M0 .3h18v18H0z"/></clipPath></defs></svg>
